X:134
T:Moll Halfpenny
B:Joyce, P. W.; "Old Irish Folk Music and Songs"
H:This name is the same as "Molly MacAlpin," and the air is a dance setting,
H:and also a song setting--a very good one too--of this fine air (Molly
H:MacAlpin) to which Moore wrote his song, "Remember the glories of Brian the
H:Brave."
O:Irish
R:song/set dance
N:I guessed set dance because it doesn't really resemble a reel, or even
N:a hornpipe
L:1/8
M:C
K:C
ed|\
c2 A2 A2 Bc|dcAF G2 cd|edce dcAG|A2 A2 A2 de|
f2 gf e2 fe|dcde g2 ((3e^fg)|aged cAdc|A2 A2 A2|e^f|
g2 ga gede|g^fga gede|a2 ab c'bag|e2 aa a2 ag|
fagf egfe|dcde eaaf|gfed cAdc|A2 A2 A2||

